X:2
T:T001B- Carrick Fergues New Set (Small Pin Cushion/ Haste to the
Wedding)
S:Gillespie MS, NLS MS.808
N:bar 12 is written |e>fe ef2g2| in the MS
N:transcribed by Jack Campin
M:6/8
K:D
B|\
A>FA A>Bd|(Te>de) fdB|AFA (B/c/d)F|E>FE E2B|\
A>FA Agf|Te>de fdB|A2g (f/g/a)f|d>ed d2:|
f/g/|\
afa def|bab efg|aba agf|e>fe efg|\
a3 {g}f3|Te>de fdB|A2g (f/g/a)f|ded d2f/g/|
af/g/a/f/ df/g/a/f/|ag/a/b/g/ ef/g/a/g/|ag/a/b/g/ a/f/g/e/f/g/|
e>fe e2f/g/|a(f/g/a/f/) ge/f/g/e/|fde fdB|A2g (f/g/a)f|d>ed d2|]

